X: 1820
T: Ardaneen, The
R: polka
M: 2/4
K: Dmajor
|:AA/B/ AF|AB d>B|AF EF|AF EF|
AA/B/ AF|AB d>e|fa ef|1 ed dB:|2 ed d2||
[K:Dm]|:aa/b/ ag|ff/g/ fd|e/f/g ag|e/f/g ag|
aa/b/ ag|ff/g/ fd|e/f/g fe|1 d2 dg:|2 d2 d=B||

